X:1
L:1/8
M:6/8
K:Bmin
""Bm"" BcB BAF |""D"" FEF DFA |""Bm"" BcB BAF |""D"" d2 e fed |""Bm"" BcB BAF |""D"" FEF DFA |""Bm"" def""A"" gfe | 
""Bm"" fdB B2 A ::""D"" def a3 | afb afe |""Bm"" def""A"" gfe |""Bm"" fed edB |""D"" def a3 | afb afe | 
""Bm"" def""A"" gfe |""Bm"" fdB B2 A :|
